icons/sparkle-24.svg

<svg width="24" height="24" viewBox="0 0 24 24" fill="none" xmlns="http://www.w3.org/2000/svg">
<path d="M11.1905 0.565381C11.4665 -0.18852 12.5331 -0.188401 12.8094 0.565381L14.727 5.80301C15.3167 7.41373 16.5861 8.68311 18.1968 9.27289L23.4345 11.1905C24.1885 11.4665 24.1885 12.5333 23.4345 12.8094L18.1968 14.727C16.5861 15.3167 15.3167 16.5861 14.727 18.1968L12.8094 23.4345C12.5333 24.1885 11.4665 24.1885 11.1905 23.4345L9.27289 18.1968C8.68311 16.5861 7.41373 15.3166 5.80301 14.727L0.565381 12.8094C-0.188391 12.5332 -0.188529 11.4666 0.565381 11.1905L5.80301 9.27289C7.41382 8.68315 8.68315 7.41382 9.27289 5.80301L11.1905 0.565381ZM10.6861 6.32109C9.94417 8.34732 8.34732 9.94417 6.32109 10.6861L2.72977 12.0004L6.32109 13.3147C8.34737 14.0567 9.94424 15.6534 10.6861 17.6797L12.0004 21.2691L13.3147 17.6797C14.0566 15.6533 15.6533 14.0566 17.6797 13.3147L21.2691 12.0004L17.6797 10.6861C15.6534 9.94424 14.0567 8.34737 13.3147 6.32109L12.0004 2.72977L10.6861 6.32109Z" fill="black"/>
</svg>

<svg xmlns="http://www.w3.org/2000/svg" width="24" height="24" viewBox="0 0 24 24"><path d="M11.191.565c.275-.754 1.342-.753 1.618 0l1.918 5.238a5.83 5.83 0 0 0 3.47 3.47l5.237 1.918c.755.275.755 1.342 0 1.618l-5.237 1.918a5.83 5.83 0 0 0-3.47 3.47l-1.918 5.237c-.276.755-1.343.755-1.618 0l-1.918-5.237a5.83 5.83 0 0 0-3.47-3.47L.565 12.809c-.753-.276-.754-1.342 0-1.618l5.238-1.918a5.83 5.83 0 0 0 3.47-3.47L11.191.565Zm-.505 5.756a7.336 7.336 0 0 1-4.365 4.365L2.73 12l3.591 1.315a7.333 7.333 0 0 1 4.365 4.365L12 21.269l1.315-3.589a7.33 7.33 0 0 1 4.365-4.365L21.269 12l-3.589-1.314a7.333 7.333 0 0 1-4.365-4.365L12 2.73l-1.314 3.591Z"/></svg>
